X:1
T: Miss Campbell's Reel
C:
R:Reel
Q: 232
K:C
M:4/4
L:1/8
|:A|GE GA c2 ce|dc de dc Ac|GE GA cd ea|ga gf ec cA|
GE GA c2 ce|dc de dc Ac|GE GA cd ea|ga gf ec ce|
ga gc ac gc|fd ec Bd de|ga gc ac gc|fe df ec ce|
ga gc ac gc|fd ec Bd de|cG EG cd ea|gc gf ec c:|
